X:1
T:Sursum Corda (Lomas), 10.10.10.10
T:Sursum Corda (Lomas), 10.10.10.10
T:George Lomas, 1876
T:Public Domain Courtesy of the Cyber Hymnal™
C:George Lomas, 1876
Z:Public Domain
Z:Courtesy of the Cyber Hymnal™
%%score ( 1 2 ) ( 3 4 )
L:1/8
M:4/4
K:E
V:1 treble 
V:2 treble 
V:3 bass 
V:4 bass 
V:1
 [B,E]4 [CE]2 [B,F]2 | [EG]2 [DA]2 [EB]4 | A4 [DG]2 [DF]2 | [EG]8 | [EB]4 E2 [DF]2 | %5
 [EG]2 [FA]2 [EG]4 | F4 [CE]2 [^B,D]2 | [CE]8 | [FB]4 [EB]2 [EB]2 | [Ec]2 [EB]2 [DA]2 [EG]2 | %10
 A4 [EG]4 | [DF]8 | [EB]4 [CE]2 [DF]2 | [EG]2 A2 G2 [CF]2 x | [B,E]4 [B,D]4 | [B,E]8 |] %16
V:2
 x8 | x8 | (F2 E2) x4 | x8 | x8 | x8 | (E2 D2) x4 | x8 | x8 | x8 | (E2 F2) x4 | x8 | x8 | %13
 x2 (EF) (ED) x3 | x8 | x8 |] %16
V:3
 [E,G,]4 [C,G,]2 [D,B,]2 | [E,B,]2 [F,B,]2 [G,B,]4 | [F,C]4 [B,,B,]2 [B,,B,]2 | [E,B,]8 | %4
 [G,B,]4 [G,B,]2 [F,A,]2 | [E,B,]2 [D,B,]2 [E,B,]4 | [F,A,]4 G,2 [G,,G,]2 | [C,G,]8 | %8
 (B,2 A,2) [E,G,]2 [G,B,]2 | A,2 [G,B,]2 [F,B,]2 [E,B,]2 | ([C,C]2 [D,B,]2) [E,B,]4 | B,8 | %12
 [G,,B,]4 [C,G,]2 [B,,B,]2 | [E,B,]2 A,2 B,3 z x | [B,,G,]4 [B,,A,]4 | [E,G,]8 |] %16
V:4
 x8 | x8 | x8 | x8 | x8 | x8 | x4 G,2 x2 | x8 | D,4 x4 | x8 | x8 | (B,,4 A,,4) | x8 | %13
 x2 (C,D,) E,2 (A,,2 A,) | x8 | x8 |] %16

